X:5530
Q: 1/4=95
T: Én felettem hiába dörög az ég
M:4/4
L:1/8
K:C
GGDD BBcA | B G3 G2 z2 |
ddee dBdc | B A3 A2 z2 |
ddee dB d2 | GGAA BG D2 |
GGDD BBcA | B G3 G2 z2 |

